packages/foundations/assets/icons/functional/images/notification/check_circle_32_filled.svg

<svg width="32" height="32" viewBox="0 0 32 32" fill="none" xmlns="http://www.w3.org/2000/svg">
<g clip-path="url(#clip0_2214_8044)">
<path fill-rule="evenodd" clip-rule="evenodd" d="M16 2C23.7188 2 30 8.2812 30 16C30 23.7188 23.7188 30 16 30C8.28125 30 2 23.7188 2 16C2 8.2812 8.28125 2 16 2ZM22.9727 10.5625C22.7188 10.5625 22.4688 10.6563 22.2812 10.8438L13.5625 19.5938L9.75 15.7812C9.5243 15.5696 9.28587 15.4854 9.06057 15.4854C8.50851 15.4854 8.03906 15.9386 8.03906 16.5C8.03906 16.7578 8.14062 17.0156 8.34375 17.2188L12.8438 21.7188L12.9375 21.7812C13.1262 21.9264 13.3485 21.9974 13.567 21.9974C13.819 21.9974 14.0659 21.9029 14.25 21.7188L23.6875 12.2812C23.9256 12.0431 24.0193 11.7988 24.0193 11.5707C24.0193 11.0371 23.5393 10.5625 22.9727 10.5625Z" fill="#1A1C1F"/>
</g>
<defs>
<clipPath id="clip0_2214_8044">
<rect width="32" height="32" fill="white"/>
</clipPath>
</defs>
</svg>

<svg xmlns="http://www.w3.org/2000/svg" width="32" height="32" fill="none"><g clip-path="url(#a)"><path fill="#1A1C1F" fill-rule="evenodd" d="M16 2c7.719 0 14 6.281 14 14s-6.281 14-14 14S2 23.719 2 16 8.281 2 16 2m6.973 8.563a.97.97 0 0 0-.692.28l-8.718 8.75-3.813-3.812c-.226-.211-.464-.296-.69-.296-.551 0-1.02.454-1.02 1.015 0 .258.1.516.304.719l4.5 4.5.094.062c.188.145.41.216.629.216a.96.96 0 0 0 .683-.278l9.438-9.438c.238-.238.331-.482.331-.71 0-.534-.48-1.008-1.046-1.008" clip-rule="evenodd"/></g><defs><clipPath id="a"><path fill="#fff" d="M0 0h32v32H0z"/></clipPath></defs></svg>
